X:1
T:The Rising of the Moon
M:2/4
L:1/8
K:Eb
 C3/2 D/2| EF Gc| B/2 G3/2 FD| GF/2-D/2 CC| C2 C3/2 D/2| EF Gc| B/2 G3/2 FD|\
 GF/2-D/2 C3/2 C/2| C2 Gc| c3/2 B/2 d3/2 c/2| BG FG| B/2 G3/2 Bd| c2 Gc|\
 cB d3/2 c/2| B/2 G3/2 FD| GF/2-E/2 C3/2 C/2| C2||
